austria/municipalities/41604.svg

<?xml version="1.0" encoding="UTF-8"?>
<!DOCTYPE svg PUBLIC "-//W3C//DTD SVG 1.1//EN" "http://www.w3.org/Graphics/SVG/1.1/DTD/svg11.dtd">
<svg xmlns="http://www.w3.org/2000/svg" version="1.1" width="166px" height="207px" style="shape-rendering:geometricPrecision; text-rendering:geometricPrecision; image-rendering:optimizeQuality; fill-rule:evenodd; clip-rule:evenodd" xmlns:xlink="http://www.w3.org/1999/xlink">
<g><path style="opacity:1" fill="#000000" d="M -0.5,-0.5 C 54.8333,-0.5 110.167,-0.5 165.5,-0.5C 165.5,43.5 165.5,87.5 165.5,131.5C 158.067,171.269 134.733,196.269 95.5,206.5C 86.8333,206.5 78.1667,206.5 69.5,206.5C 29.5011,196.502 6.16779,171.168 -0.5,130.5C -0.5,86.8333 -0.5,43.1667 -0.5,-0.5 Z"/></g>
<g><path style="opacity:1" fill="#fe9900" d="M 3.5,3.5 C 56.1667,3.5 108.833,3.5 161.5,3.5C 161.667,47.5013 161.5,91.5013 161,135.5C 159.286,145.924 155.62,155.591 150,164.5C 141.086,147.131 128.586,143.797 112.5,154.5C 100.396,132.875 83.7289,128.375 62.5,141C 58.5883,145.077 55.255,149.577 52.5,154.5C 44.6848,147.88 36.0181,146.714 26.5,151C 24,153.5 21.5,156 19,158.5C 18.1221,161.257 17.1221,163.924 16,166.5C 9.62225,156.035 5.62225,144.702 4,132.5C 3.50001,89.5013 3.33334,46.5013 3.5,3.5 Z"/></g>
<g><path style="opacity:1" fill="#000000" d="M 25.5,11.5 C 29.7675,11.203 33.9341,11.5363 38,12.5C 38.4992,17.1548 38.6658,21.8215 38.5,26.5C 43.1667,26.5 47.8333,26.5 52.5,26.5C 52.5,31.1667 52.5,35.8333 52.5,40.5C 47.8333,40.5 43.1667,40.5 38.5,40.5C 38.5,45.1667 38.5,49.8333 38.5,54.5C 34.1539,54.6657 29.8206,54.499 25.5,54C 24.5333,49.5986 24.2,45.0986 24.5,40.5C 20.1539,40.6657 15.8206,40.499 11.5,40C 10.8629,37.7574 10.5296,35.4241 10.5,33C 10.3909,30.2997 10.8909,27.7997 12,25.5C 16.0659,26.4637 20.2325,26.797 24.5,26.5C 24.2213,21.4053 24.5546,16.4053 25.5,11.5 Z"/></g>
<g><path style="opacity:1" fill="#000000" d="M 127.5,11.5 C 131.767,11.203 135.934,11.5363 140,12.5C 140.499,17.1548 140.666,21.8215 140.5,26.5C 144.767,26.797 148.934,26.4637 153,25.5C 154.109,27.7997 154.609,30.2997 154.5,33C 154.47,35.4241 154.137,37.7574 153.5,40C 149.179,40.499 144.846,40.6657 140.5,40.5C 140.666,44.8461 140.499,49.1794 140,53.5C 135.599,54.4667 131.099,54.8 126.5,54.5C 126.5,49.8333 126.5,45.1667 126.5,40.5C 122.154,40.6657 117.821,40.499 113.5,40C 112.863,37.7574 112.53,35.4241 112.5,33C 112.391,30.2997 112.891,27.7997 114,25.5C 118.066,26.4637 122.233,26.797 126.5,26.5C 126.221,21.4053 126.555,16.4053 127.5,11.5 Z"/></g>
<g><path style="opacity:1" fill="#cb0000" d="M 26.5,13.5 C 29.8333,13.5 33.1667,13.5 36.5,13.5C 36.5,18.5 36.5,23.5 36.5,28.5C 41.1667,28.5 45.8333,28.5 50.5,28.5C 50.5,31.8333 50.5,35.1667 50.5,38.5C 45.7971,38.5628 41.1304,38.2295 36.5,37.5C 36.5,42.5 36.5,47.5 36.5,52.5C 33.1667,52.5 29.8333,52.5 26.5,52.5C 26.5029,47.4725 26.8363,42.4725 27.5,37.5C 22.5275,38.1637 17.5275,38.4971 12.5,38.5C 12.5,35.1667 12.5,31.8333 12.5,28.5C 17.5,28.5 22.5,28.5 27.5,28.5C 26.8363,23.5275 26.5029,18.5275 26.5,13.5 Z"/></g>
<g><path style="opacity:1" fill="#cb0000" d="M 128.5,13.5 C 131.833,13.5 135.167,13.5 138.5,13.5C 138.5,18.5 138.5,23.5 138.5,28.5C 143.167,28.5 147.833,28.5 152.5,28.5C 152.5,31.8333 152.5,35.1667 152.5,38.5C 147.797,38.5628 143.13,38.2295 138.5,37.5C 138.5,42.5 138.5,47.5 138.5,52.5C 135.167,52.5 131.833,52.5 128.5,52.5C 128.5,47.5 128.5,42.5 128.5,37.5C 123.87,38.2295 119.203,38.5628 114.5,38.5C 114.5,35.1667 114.5,31.8333 114.5,28.5C 119.167,28.5 123.833,28.5 128.5,28.5C 128.5,23.5 128.5,18.5 128.5,13.5 Z"/></g>
<g><path style="opacity:1" fill="#000000" d="M 91.5,41.5 C 91.1558,44.5623 90.4891,47.5623 89.5,50.5C 84.636,49.1877 79.8027,49.1877 75,50.5C 74.6371,47.456 74.1371,44.456 73.5,41.5C 79.4008,40.1943 85.4008,40.1943 91.5,41.5 Z"/></g>
<g><path style="opacity:1" fill="#000000" d="M 71.5,41.5 C 73.8731,45.1087 73.8731,48.6087 71.5,52C 75.1837,52.0014 78.8504,51.5014 82.5,50.5C 85.8461,51.1705 89.1794,51.8372 92.5,52.5C 92.3796,50.8014 92.0463,49.1347 91.5,47.5C 92.1776,45.484 92.8443,43.484 93.5,41.5C 112.283,49.0334 121.616,63.0334 121.5,83.5C 120.898,96.609 117.231,108.609 110.5,119.5C 108.254,118.545 105.921,117.878 103.5,117.5C 101.678,115.99 99.678,114.657 97.5,113.5C 99.4241,107.559 101.257,101.559 103,95.5C 104.114,86.9897 103.448,78.6563 101,70.5C 96.7707,64.052 90.7707,61.052 83,61.5C 72.3014,60.6791 65.3014,65.3457 62,75.5C 60.0322,88.6957 61.8655,101.362 67.5,113.5C 63.3216,115.755 58.9883,117.755 54.5,119.5C 42.8868,100.47 41.0534,80.4698 49,59.5C 54.623,51.0323 62.123,45.0323 71.5,41.5 Z"/></g>
<g><path style="opacity:1" fill="#fefffe" d="M 71.5,41.5 C 72.1667,41.5 72.8333,41.5 73.5,41.5C 74.1371,44.456 74.6371,47.456 75,50.5C 79.8027,49.1877 84.636,49.1877 89.5,50.5C 90.4891,47.5623 91.1558,44.5623 91.5,41.5C 92.1667,41.5 92.8333,41.5 93.5,41.5C 92.8443,43.484 92.1776,45.484 91.5,47.5C 92.0463,49.1347 92.3796,50.8014 92.5,52.5C 89.1794,51.8372 85.8461,51.1705 82.5,50.5C 78.8504,51.5014 75.1837,52.0014 71.5,52C 73.8731,48.6087 73.8731,45.1087 71.5,41.5 Z"/></g>
<g><path style="opacity:1" fill="#fe9900" d="M 62.5,52.5 C 66.0894,53.3721 66.4227,55.0387 63.5,57.5C 60.2498,56.0858 59.9165,54.4191 62.5,52.5 Z"/></g>
<g><path style="opacity:1" fill="#fe9900" d="M 100.5,52.5 C 105.016,53.6253 105.35,55.292 101.5,57.5C 99.2957,56.218 98.9624,54.5514 100.5,52.5 Z"/></g>
<g><path style="opacity:1" fill="#fe9900" d="M 52.5,63.5 C 53.8333,63.5 55.1667,63.5 56.5,63.5C 56.5,64.8333 56.5,66.1667 56.5,67.5C 55.1667,67.5 53.8333,67.5 52.5,67.5C 52.5,66.1667 52.5,64.8333 52.5,63.5 Z"/></g>
<g><path style="opacity:1" fill="#fe9900" d="M 108.5,63.5 C 109.833,63.5 111.167,63.5 112.5,63.5C 112.5,64.8333 112.5,66.1667 112.5,67.5C 109.5,67.8333 108.167,66.5 108.5,63.5 Z"/></g>
<g><path style="opacity:1" fill="#fe9900" d="M 48.5,76.5 C 49.8333,76.5 51.1667,76.5 52.5,76.5C 52.5,77.8333 52.5,79.1667 52.5,80.5C 51.1667,80.5 49.8333,80.5 48.5,80.5C 48.5,79.1667 48.5,77.8333 48.5,76.5 Z"/></g>
<g><path style="opacity:1" fill="#fe9900" d="M 111.5,76.5 C 112.833,76.5 114.167,76.5 115.5,76.5C 115.5,77.8333 115.5,79.1667 115.5,80.5C 114.167,80.5 112.833,80.5 111.5,80.5C 111.5,79.1667 111.5,77.8333 111.5,76.5 Z"/></g>
<g><path style="opacity:1" fill="#fe9900" d="M 52.5,91.5 C 56.2019,93.2213 56.2019,94.888 52.5,96.5C 50.0155,94.6308 50.0155,92.9641 52.5,91.5 Z"/></g>
<g><path style="opacity:1" fill="#fe9900" d="M 110.5,91.5 C 114.673,91.9711 115.34,93.6378 112.5,96.5C 110.783,95.3315 110.116,93.6648 110.5,91.5 Z"/></g>
<g><path style="opacity:1" fill="#fe9900" d="M 56.5,104.5 C 59.148,106.128 59.148,107.794 56.5,109.5C 53.8387,107.828 53.8387,106.161 56.5,104.5 Z"/></g>
<g><path style="opacity:1" fill="#fe9900" d="M 107.5,104.5 C 110.889,105.71 111.223,107.377 108.5,109.5C 107.5,109 106.5,108.5 105.5,108C 106.305,106.887 106.972,105.721 107.5,104.5 Z"/></g>
<g><path style="opacity:1" fill="#fefffe" d="M 67.5,113.5 C 67.8333,114.167 68.1667,114.833 68.5,115.5C 63.8592,117.485 59.1925,119.485 54.5,121.5C 54.5,120.833 54.5,120.167 54.5,119.5C 58.9883,117.755 63.3216,115.755 67.5,113.5 Z"/></g>
<g><path style="opacity:1" fill="#fefffe" d="M 97.5,113.5 C 99.678,114.657 101.678,115.99 103.5,117.5C 101.297,117.396 99.2972,116.73 97.5,115.5C 97.5,114.833 97.5,114.167 97.5,113.5 Z"/></g>
<g><path style="opacity:1" fill="#000000" d="M 68.5,115.5 C 69.6227,117.581 70.6227,119.747 71.5,122C 67.1972,125.402 62.3638,127.902 57,129.5C 55.1403,127.625 53.6403,125.458 52.5,123C 53.0442,122.283 53.7109,121.783 54.5,121.5C 59.1925,119.485 63.8592,117.485 68.5,115.5 Z"/></g>
<g><path style="opacity:1" fill="#000000" d="M 97.5,115.5 C 99.2972,116.73 101.297,117.396 103.5,117.5C 105.535,119.195 107.868,120.528 110.5,121.5C 111.289,121.783 111.956,122.283 112.5,123C 111.36,125.458 109.86,127.625 108,129.5C 102.776,127.471 97.6092,125.305 92.5,123C 94.2669,120.456 95.9336,117.956 97.5,115.5 Z"/></g>
<g><path style="opacity:1" fill="#fefffe" d="M 103.5,117.5 C 105.921,117.878 108.254,118.545 110.5,119.5C 110.5,120.167 110.5,120.833 110.5,121.5C 107.868,120.528 105.535,119.195 103.5,117.5 Z"/></g>
<g><path style="opacity:1" fill="#fefffe" d="M -0.5,130.5 C 6.16779,171.168 29.5011,196.502 69.5,206.5C 46.1667,206.5 22.8333,206.5 -0.5,206.5C -0.5,181.167 -0.5,155.833 -0.5,130.5 Z"/></g>
<g><path style="opacity:1" fill="#fefffe" d="M 165.5,131.5 C 165.5,156.5 165.5,181.5 165.5,206.5C 142.167,206.5 118.833,206.5 95.5,206.5C 134.733,196.269 158.067,171.269 165.5,131.5 Z"/></g>
<g><path style="opacity:1" fill="#006632" d="M 77.5,136.5 C 90.6494,135.493 100.816,140.493 108,151.5C 109.578,154.657 110.578,157.991 111,161.5C 116.177,151.883 124.01,148.717 134.5,152C 142.316,155.447 146.483,161.28 147,169.5C 146.333,170.833 145.333,171.833 144,172.5C 139.153,170.44 134.153,168.773 129,167.5C 121.571,170.441 113.904,172.441 106,173.5C 98.6695,171.999 91.3362,170.666 84,169.5C 79.0097,168.958 74.5097,170.125 70.5,173C 67.8929,173.818 65.2263,174.318 62.5,174.5C 54.9419,172.361 47.2752,170.694 39.5,169.5C 33.2842,170.059 27.2842,171.226 21.5,173C 18.3107,170.052 17.8107,166.552 20,162.5C 26.7627,150.58 36.2627,147.746 48.5,154C 50.7089,155.873 52.5422,158.04 54,160.5C 57.3845,147.95 65.2178,139.95 77.5,136.5 Z"/></g>
<g><path style="opacity:1" fill="#fefffe" d="M 128.5,170.5 C 133.565,170.841 138.231,172.341 142.5,175C 140.833,176.667 139.167,178.333 137.5,180C 133.188,179.838 128.854,179.338 124.5,178.5C 116.768,180.725 108.934,182.392 101,183.5C 94.2293,182.64 87.5627,181.307 81,179.5C 76.6108,179.852 72.4442,181.018 68.5,183C 63.8333,183.667 59.1667,183.667 54.5,183C 48.8588,181.064 43.1922,179.231 37.5,177.5C 34.5866,178.27 31.7533,179.27 29,180.5C 27.0403,179.708 25.5403,178.375 24.5,176.5C 28.5049,174.078 32.8382,172.411 37.5,171.5C 46.1653,172.8 54.6653,174.8 63,177.5C 69.8492,174.905 76.8492,172.905 84,171.5C 91.1244,173.242 98.291,174.575 105.5,175.5C 113.524,174.907 121.191,173.24 128.5,170.5 Z"/></g>
<g><path style="opacity:1" fill="#006632" d="M 34.5,180.5 C 43.3719,182.403 52.2052,184.403 61,186.5C 67.487,185.779 73.8203,184.446 80,182.5C 86.8939,183.52 93.7272,184.853 100.5,186.5C 106.81,186.148 112.81,184.648 118.5,182C 123.921,181.161 129.254,181.494 134.5,183C 108.937,204.135 80.6036,208.468 49.5,196C 42.6389,192.478 36.3055,188.145 30.5,183C 31.8584,182.066 33.1917,181.232 34.5,180.5 Z"/></g>
</svg>

<svg xmlns="http://www.w3.org/2000/svg" width="166" height="207" style="shape-rendering:geometricPrecision;text-rendering:geometricPrecision;image-rendering:optimizeQuality;fill-rule:evenodd;clip-rule:evenodd"><path style="opacity:1" d="M-.5-.5h166v132c-7.433 39.769-30.767 64.769-70 75h-26c-39.999-9.998-63.332-35.332-70-76V-.5z"/><path style="opacity:1" fill="#fe9900" d="M3.5 3.5h158c.167 44.001 0 88.001-.5 132-1.714 10.424-5.38 20.091-11 29-8.914-17.369-21.414-20.703-37.5-10-12.104-21.625-28.771-26.125-50-13.5a65.922 65.922 0 0 0-10 13.5c-7.815-6.62-16.482-7.786-26-3.5l-7.5 7.5a83.325 83.325 0 0 1-3 8c-6.378-10.465-10.378-21.798-12-34-.5-42.999-.667-85.999-.5-129z"/><path style="opacity:1" d="M25.5 11.5c4.267-.297 8.434.036 12.5 1 .5 4.655.666 9.322.5 14h14v14h-14v14a84.938 84.938 0 0 1-13-.5 48.041 48.041 0 0 1-1-13.5 84.938 84.938 0 0 1-13-.5 26.694 26.694 0 0 1-1-7c-.11-2.7.39-5.2 1.5-7.5 4.066.964 8.233 1.297 12.5 1a61.278 61.278 0 0 1 1-15zM127.5 11.5c4.267-.297 8.434.036 12.5 1 .499 4.655.666 9.322.5 14 4.267.297 8.434-.036 12.5-1 1.109 2.3 1.609 4.8 1.5 7.5a26.715 26.715 0 0 1-1 7 84.94 84.94 0 0 1-13 .5 84.9 84.9 0 0 1-.5 13c-4.401.967-8.901 1.3-13.5 1v-14a84.94 84.94 0 0 1-13-.5 26.715 26.715 0 0 1-1-7c-.109-2.7.391-5.2 1.5-7.5 4.066.964 8.233 1.297 12.5 1a61.283 61.283 0 0 1 1-15z"/><path style="opacity:1" fill="#cb0000" d="M26.5 13.5h10v15h14v10c-4.703.063-9.37-.27-14-1v15h-10a113.75 113.75 0 0 1 1-15 113.75 113.75 0 0 1-15 1v-10h15a113.75 113.75 0 0 1-1-15zM128.5 13.5h10v15h14v10c-4.703.063-9.37-.27-14-1v15h-10v-15a82.698 82.698 0 0 1-14 1v-10h14v-15z"/><path style="opacity:1" d="M91.5 41.5a43.276 43.276 0 0 1-2 9c-4.864-1.312-9.697-1.312-14.5 0a97.442 97.442 0 0 0-1.5-9c5.9-1.306 11.9-1.306 18 0z"/><path style="opacity:1" d="M71.5 41.5c2.373 3.609 2.373 7.109 0 10.5 3.684.001 7.35-.499 11-1.5l10 2a20.228 20.228 0 0 0-1-5c.678-2.016 1.344-4.016 2-6 18.783 7.533 28.116 21.533 28 42-.602 13.109-4.269 25.109-11 36a29.417 29.417 0 0 0-7-2 35.377 35.377 0 0 0-6-4 568.627 568.627 0 0 0 5.5-18c1.114-8.51.448-16.844-2-25-4.23-6.448-10.23-9.448-18-9-10.699-.82-17.699 3.846-21 14-1.968 13.196-.135 25.862 5.5 38a115.358 115.358 0 0 1-13 6c-11.613-19.03-13.447-39.03-5.5-60 5.623-8.468 13.123-14.468 22.5-18z"/><path style="opacity:1" fill="#fefffe" d="M71.5 41.5h2a97.442 97.442 0 0 1 1.5 9c4.803-1.312 9.636-1.312 14.5 0a43.276 43.276 0 0 0 2-9h2c-.656 1.984-1.322 3.984-2 6 .546 1.635.88 3.301 1 5l-10-2a41.342 41.342 0 0 1-11 1.5c2.373-3.391 2.373-6.891 0-10.5z"/><path style="opacity:1" fill="#fe9900" d="M62.5 52.5c3.59.872 3.923 2.539 1 5-3.25-1.414-3.584-3.08-1-5zM100.5 52.5c4.516 1.125 4.85 2.792 1 5-2.204-1.282-2.538-2.949-1-5zM52.5 63.5h4v4h-4v-4zM108.5 63.5h4v4c-3 .333-4.333-1-4-4zM48.5 76.5h4v4h-4v-4zM111.5 76.5h4v4h-4v-4zM52.5 91.5c3.702 1.721 3.702 3.388 0 5-2.484-1.87-2.484-3.536 0-5zM110.5 91.5c4.173.471 4.84 2.138 2 5-1.717-1.168-2.384-2.835-2-5zM56.5 104.5c2.648 1.628 2.648 3.294 0 5-2.661-1.672-2.661-3.339 0-5zM107.5 104.5c3.389 1.21 3.723 2.877 1 5l-3-1.5a18.473 18.473 0 0 0 2-3.5z"/><path style="opacity:1" fill="#fefffe" d="m67.5 113.5 1 2c-4.64 1.985-9.307 3.985-14 6v-2a115.358 115.358 0 0 0 13-6zM97.5 113.5a35.377 35.377 0 0 1 6 4c-2.203-.104-4.203-.77-6-2v-2z"/><path style="opacity:1" d="M68.5 115.5a57.984 57.984 0 0 1 3 6.5c-4.303 3.402-9.136 5.902-14.5 7.5a22.735 22.735 0 0 1-4.5-6.5c.544-.717 1.21-1.217 2-1.5 4.693-2.015 9.36-4.015 14-6zM97.5 115.5c1.797 1.23 3.797 1.896 6 2 2.035 1.695 4.368 3.028 7 4 .789.283 1.456.783 2 1.5a22.723 22.723 0 0 1-4.5 6.5 315.077 315.077 0 0 1-15.5-6.5 229.464 229.464 0 0 0 5-7.5z"/><path style="opacity:1" fill="#fefffe" d="M103.5 117.5a29.417 29.417 0 0 1 7 2v2c-2.632-.972-4.965-2.305-7-4zM-.5 130.5c6.668 40.668 30.001 66.002 70 76h-70v-76zM165.5 131.5v75h-70c39.233-10.231 62.567-35.231 70-75z"/><path style="opacity:1" fill="#006632" d="M77.5 136.5c13.15-1.007 23.316 3.993 30.5 15a30.294 30.294 0 0 1 3 10c5.177-9.617 13.01-12.783 23.5-9.5 7.816 3.447 11.983 9.28 12.5 17.5a6.547 6.547 0 0 1-3 3 98.967 98.967 0 0 0-15-5 97.395 97.395 0 0 1-23 6 504.17 504.17 0 0 0-22-4c-4.99-.542-9.49.625-13.5 3.5a34.25 34.25 0 0 1-8 1.5 190.648 190.648 0 0 0-23-5c-6.216.559-12.216 1.726-18 3.5-3.19-2.948-3.69-6.448-1.5-10.5 6.763-11.92 16.263-14.754 28.5-8.5a25.549 25.549 0 0 1 5.5 6.5c3.385-12.55 11.218-20.55 23.5-24z"/><path style="opacity:1" fill="#fefffe" d="M128.5 170.5c5.065.341 9.731 1.841 14 4.5l-5 5a85.738 85.738 0 0 1-13-1.5 169.805 169.805 0 0 1-23.5 5 143.225 143.225 0 0 1-20-4 33.559 33.559 0 0 0-12.5 3.5 49.226 49.226 0 0 1-14 0 504.994 504.994 0 0 0-17-5.5 55.697 55.697 0 0 0-8.5 3c-1.96-.792-3.46-2.125-4.5-4 4.005-2.422 8.338-4.089 13-5 8.665 1.3 17.165 3.3 25.5 6a129.807 129.807 0 0 1 21-6 194.874 194.874 0 0 0 21.5 4c8.024-.593 15.691-2.26 23-5z"/><path style="opacity:1" fill="#006632" d="M34.5 180.5a1193.247 1193.247 0 0 1 26.5 6 99.811 99.811 0 0 0 19-4 227.836 227.836 0 0 1 20.5 4c6.31-.352 12.31-1.852 18-4.5 5.421-.839 10.754-.506 16 1-25.563 21.135-53.896 25.468-85 13a91.637 91.637 0 0 1-19-13 51.239 51.239 0 0 1 4-2.5z"/></svg>
